Origami/24x24/apps/cs-applets.svg

<svg width="24" height="24" version="1" xmlns="http://www.w3.org/2000/svg">
 <rect transform="matrix(0,-1,-1,0,0,0)" x="-20" y="-22" width="16" height="20" rx="1" ry="1" style="fill:#5f7c8a"/>
 <rect transform="matrix(0,-1,-1,0,0,0)" x="-18" y="-20" width="12" height="16" rx="0" ry="0" style="fill:#7f96a1"/>
 <path d="m3 4c-0.554 0-1 0.446-1 1v0.5c0-0.554 0.446-1 1-1h18c0.554 0 1 0.446 1 1v-0.5c0-0.554-0.446-1-1-1h-18z" style="fill:#ffffff;opacity:.1"/>
 <path d="m4.5 15.5h2c0.277 0 0.5 0.223 0.5 0.5v2c0 0.277-0.223 0.5-0.5 0.5h-2c-0.277 0-0.5-0.223-0.5-0.5v-2c0-0.277 0.223-0.5 0.5-0.5z" style="opacity:.2"/>
 <path d="m8.5 15.5h2c0.277 0 0.5 0.223 0.5 0.5v2c0 0.277-0.223 0.5-0.5 0.5h-2c-0.277 0-0.5-0.223-0.5-0.5v-2c0-0.277 0.223-0.5 0.5-0.5z" style="opacity:.2"/>
 <path d="m12.5 15.5h2c0.277 0 0.5 0.223 0.5 0.5v2c0 0.277-0.223 0.5-0.5 0.5h-2c-0.277 0-0.5-0.223-0.5-0.5v-2c0-0.277 0.223-0.5 0.5-0.5z" style="opacity:.2"/>
 <path d="m16.5 15.5h2c0.277 0 0.5 0.223 0.5 0.5v2c0 0.277-0.223 0.5-0.5 0.5h-2c-0.277 0-0.5-0.223-0.5-0.5v-2c0-0.277 0.223-0.5 0.5-0.5z" style="opacity:.2"/>
 <path d="m4.5 15h2c0.277 0 0.5 0.223 0.5 0.5v2c0 0.277-0.223 0.5-0.5 0.5h-2c-0.277 0-0.5-0.223-0.5-0.5v-2c0-0.277 0.223-0.5 0.5-0.5z" style="fill:#ffffff"/>
 <path d="m8.5 15h2c0.277 0 0.5 0.223 0.5 0.5v2c0 0.277-0.223 0.5-0.5 0.5h-2c-0.277 0-0.5-0.223-0.5-0.5v-2c0-0.277 0.223-0.5 0.5-0.5z" style="fill:#ffffff"/>
 <path d="m12.5 15h2c0.277 0 0.5 0.223 0.5 0.5v2c0 0.277-0.223 0.5-0.5 0.5h-2c-0.277 0-0.5-0.223-0.5-0.5v-2c0-0.277 0.223-0.5 0.5-0.5z" style="fill:#ffffff"/>
 <path d="m16.5 15h2c0.277 0 0.5 0.223 0.5 0.5v2c0 0.277-0.223 0.5-0.5 0.5h-2c-0.277 0-0.5-0.223-0.5-0.5v-2c0-0.277 0.223-0.5 0.5-0.5z" style="fill:#ffffff"/>
 <path d="m2 19v0.5c0 0.554 0.446 1 1 1h18c0.554 0 1-0.446 1-1v-0.5c0 0.554-0.446 1-1 1h-18c-0.554 0-1-0.446-1-1z" style="opacity:.2"/>
</svg>

<svg xmlns="http://www.w3.org/2000/svg" width="24" height="24" version="1">
 <rect style="fill:#325f78" width="16" height="20" x="-20" y="-22" rx="1" ry="1" transform="matrix(0,-1,-1,0,0,0)"/>
 <rect style="opacity:0.2" width="12" height="16" x="-18" y="-20" rx="0" ry="0" transform="matrix(0,-1,-1,0,0,0)"/>
 <path style="opacity:0.1;fill:#ffffff" d="M 3,4 C 2.446,4 2,4.446 2,5 l 0,0.5 c 0,-0.554 0.446,-1 1,-1 l 18,0 c 0.554,0 1,0.446 1,1 L 22,5 C 22,4.446 21.554,4 21,4 L 3,4 Z"/>
 <path style="opacity:0.2" d="m 4.5,15.5 2,0 C 6.777,15.5 7,15.723 7,16 l 0,2 c 0,0.277 -0.223,0.5 -0.5,0.5 l -2,0 C 4.223,18.5 4,18.277 4,18 l 0,-2 c 0,-0.277 0.223,-0.5 0.5,-0.5 z"/>
 <path style="opacity:0.2" d="m 8.5,15.5 2,0 c 0.277,0 0.5,0.223 0.5,0.5 l 0,2 c 0,0.277 -0.223,0.5 -0.5,0.5 l -2,0 C 8.223,18.5 8,18.277 8,18 l 0,-2 c 0,-0.277 0.223,-0.5 0.5,-0.5 z"/>
 <path style="opacity:0.2" d="m 12.5,15.5 2,0 c 0.277,0 0.5,0.223 0.5,0.5 l 0,2 c 0,0.277 -0.223,0.5 -0.5,0.5 l -2,0 C 12.223,18.5 12,18.277 12,18 l 0,-2 c 0,-0.277 0.223,-0.5 0.5,-0.5 z"/>
 <path style="opacity:0.2" d="m 16.5,15.5 2,0 c 0.277,0 0.5,0.223 0.5,0.5 l 0,2 c 0,0.277 -0.223,0.5 -0.5,0.5 l -2,0 C 16.223,18.5 16,18.277 16,18 l 0,-2 c 0,-0.277 0.223,-0.5 0.5,-0.5 z"/>
 <path style="fill:#ffffff" d="m 4.5,15 2,0 C 6.777,15 7,15.223 7,15.5 l 0,2 C 7,17.777 6.777,18 6.5,18 l -2,0 C 4.223,18 4,17.777 4,17.5 l 0,-2 C 4,15.223 4.223,15 4.5,15 Z"/>
 <path style="fill:#ffffff" d="m 8.5,15 2,0 c 0.277,0 0.5,0.223 0.5,0.5 l 0,2 c 0,0.277 -0.223,0.5 -0.5,0.5 l -2,0 C 8.223,18 8,17.777 8,17.5 l 0,-2 C 8,15.223 8.223,15 8.5,15 Z"/>
 <path style="fill:#ffffff" d="m 12.5,15 2,0 c 0.277,0 0.5,0.223 0.5,0.5 l 0,2 c 0,0.277 -0.223,0.5 -0.5,0.5 l -2,0 C 12.223,18 12,17.777 12,17.5 l 0,-2 C 12,15.223 12.223,15 12.5,15 Z"/>
 <path style="fill:#ffffff" d="m 16.5,15 2,0 c 0.277,0 0.5,0.223 0.5,0.5 l 0,2 c 0,0.277 -0.223,0.5 -0.5,0.5 l -2,0 C 16.223,18 16,17.777 16,17.5 l 0,-2 C 16,15.223 16.223,15 16.5,15 Z"/>
 <path style="opacity:0.2" d="m 2,19 0,0.5 c 0,0.554 0.446,1 1,1 l 18,0 c 0.554,0 1,-0.446 1,-1 L 22,19 c 0,0.554 -0.446,1 -1,1 L 3,20 C 2.446,20 2,19.554 2,19 Z"/>
</svg>
